fs/reward_20_regular.svg

<svg viewBox="0 0 20 20" fill="none" xmlns="http://www.w3.org/2000/svg" height="1em" width="1em">
  <path d="M15.5275 3.00098C16.3559 3.00098 17.0275 3.67255 17.0275 4.50098V5.89655C17.0275 6.83563 16.5012 7.69551 15.665 8.12278L11.4762 10.2635C12.7017 10.8199 13.5539 12.0544 13.5539 13.488C13.5539 15.4428 11.9692 17.0275 10.0144 17.0275C8.05953 17.0275 6.47483 15.4428 6.47483 13.488C6.47483 12.0544 7.32705 10.8199 8.55248 10.2635L4.36374 8.12278C3.58324 7.72399 3.07277 6.94836 3.00817 6.0832L3.00122 5.89655V4.50098C3.00122 3.67255 3.67279 3.00098 4.50122 3.00098H15.5275ZM10.0144 10.9485C8.61181 10.9485 7.47483 12.0854 7.47483 13.488C7.47483 14.8905 8.61181 16.0275 10.0144 16.0275C11.4169 16.0275 12.5539 14.8905 12.5539 13.488C12.5539 12.0854 11.4169 10.9485 10.0144 10.9485ZM12.5532 4.00098H7.47422V8.58898L9.78686 9.77073C9.92973 9.84373 10.099 9.84373 10.2418 9.77073L12.5532 8.58898V4.00098ZM6.47422 4.00098H4.50122C4.22508 4.00098 4.00122 4.22483 4.00122 4.50098V5.89655L4.00772 6.0363C4.05514 6.54418 4.35879 6.99729 4.81873 7.23229L6.47422 8.07798V4.00098ZM15.5275 4.00098H13.5532V8.07798L15.21 7.23229C15.7117 6.97592 16.0275 6.46 16.0275 5.89655V4.50098C16.0275 4.22483 15.8036 4.00098 15.5275 4.00098Z" fill="#212121"/>
</svg>

<svg viewBox="0 0 20 20" fill="none" xmlns="http://www.w3.org/2000/svg" height="1em" width="1em">
  <path d="M15.527 3.001a1.5 1.5 0 0 1 1.5 1.5v1.396a2.5 2.5 0 0 1-1.362 2.226l-4.189 2.14a3.54 3.54 0 1 1-2.924 0l-4.188-2.14a2.5 2.5 0 0 1-1.356-2.04l-.007-.186V4.5a1.5 1.5 0 0 1 1.5-1.5h11.026Zm-5.513 7.947a2.54 2.54 0 1 0 0 5.08 2.54 2.54 0 0 0 0-5.08Zm2.54-6.947h-5.08v4.588l2.313 1.182a.5.5 0 0 0 .455 0l2.311-1.182V4.001Zm-6.08 0H4.501a.5.5 0 0 0-.5.5v1.396l.007.14a1.5 1.5 0 0 0 .81 1.195l1.656.846V4.001Zm9.053 0h-1.974v4.077l1.657-.846a1.5 1.5 0 0 0 .817-1.335V4.5a.5.5 0 0 0-.5-.5Z" fill="#212121"/>
</svg>
